<?xml version="1.0" encoding="UTF-8"?>
<map version="1.10" tiledversion="1.12.1" orientation="orthogonal" renderorder="right-down" width="37" height="31" tilewidth="64" tileheight="64" infinite="0" nextlayerid="16" nextobjectid="97">
 <tileset firstgid="1" source="tiled_tileset.tsx"/>
 <layer id="1" name="Base" width="37" height="31">
  <data encoding="csv">
25,25,25,25,25,25,25,25,25,25,25,25,25,25,25,25,25,25,25,25,25,25,25,25,25,25,25,25,25,25,25,25,25,25,25,25,25,
25,25,25,25,25,25,25,25,25,25,25,25,25,25,25,25,25,25,25,25,25,25,25,25,25,25,25,25,25,25,25,25,25,25,25,25,25,
25,25,25,25,25,25,25,25,25,25,25,25,25,25,25,25,25,25,25,25,25,25,25,25,25,25,25,25,25,25,25,25,25,25,25,25,25,
25,25,25,25,25,25,25,25,25,25,25,25,25,25,25,25,25,25,25,25,25,25,25,25,25,25,25,25,25,25,25,25,25,25,25,25,25,
25,25,25,25,25,25,25,25,25,25,25,25,25,25,25,25,25,25,25,25,25,25,25,25,25,25,25,25,25,25,25,25,25,25,25,25,25,
25,25,25,25,25,25,25,25,25,25,25,25,25,25,25,25,25,25,25,25,25,242,242,242,242,242,242,99,99,99,99,99,25,25,25,25,25,
25,25,25,25,25,25,25,25,25,25,25,25,25,25,25,25,25,25,25,25,25,242,242,242,242,242,242,99,99,99,99,99,25,25,25,25,25,
25,25,25,25,25,25,25,25,25,25,25,25,25,25,25,25,25,25,25,25,25,242,242,242,242,242,242,99,99,99,99,99,25,25,25,25,25,
25,25,25,25,25,25,25,25,25,25,25,25,25,25,25,25,25,25,25,25,25,242,242,242,242,242,242,99,99,99,99,99,25,25,25,25,25,
25,25,25,25,25,25,25,25,25,25,25,25,25,25,25,25,25,25,25,25,25,242,242,242,242,242,242,99,99,99,99,99,25,25,25,25,25,
25,25,25,25,25,25,25,25,25,25,25,25,25,25,25,25,25,25,25,25,25,242,242,242,242,242,242,99,99,99,99,99,25,25,25,25,25,
25,25,25,25,25,25,25,25,25,25,25,25,25,25,25,25,25,25,25,25,25,242,242,242,242,242,242,99,99,99,99,99,25,25,25,25,25,
25,25,25,25,25,25,25,25,25,25,25,25,25,25,25,25,25,25,25,25,25,242,242,242,242,242,242,99,99,99,99,99,25,25,25,25,25,
25,25,25,25,25,25,25,25,25,25,25,25,25,25,25,25,25,25,25,25,25,242,242,242,242,242,242,99,99,99,99,99,25,25,25,25,25,
25,25,25,25,25,25,25,25,25,25,25,25,25,25,25,25,25,25,25,25,25,242,242,242,242,242,242,99,99,99,99,99,25,25,25,25,25,
25,25,25,25,25,25,25,25,25,25,25,25,25,25,25,25,25,25,25,25,25,242,242,242,242,242,242,99,99,99,99,99,25,25,25,25,25,
25,25,25,25,25,25,25,25,25,25,25,25,25,25,25,25,25,25,25,25,25,242,242,242,242,242,242,99,99,99,99,99,25,25,25,25,25,
25,25,25,94,94,94,94,94,94,94,94,94,94,94,94,94,94,94,94,94,94,94,94,94,94,94,94,94,94,94,25,25,25,25,25,25,25,
25,25,25,94,94,94,94,94,94,94,94,94,94,94,94,94,94,94,94,94,94,94,94,94,94,94,94,94,94,94,25,25,25,25,25,25,25,
25,25,25,94,94,94,94,94,94,94,94,94,94,94,94,94,94,94,94,94,94,94,94,94,94,94,94,94,94,94,25,25,25,25,25,25,25,
25,25,25,94,94,94,94,94,94,94,94,94,94,94,94,94,94,94,94,94,94,94,94,94,94,94,94,94,94,94,25,25,25,25,25,25,25,
25,25,25,94,94,94,94,94,94,94,94,94,94,94,94,94,94,94,94,94,94,94,94,94,94,94,94,94,94,94,25,25,25,25,25,25,25,
25,25,25,94,94,94,94,94,94,94,94,94,94,94,94,94,94,94,94,94,94,94,94,94,94,94,94,94,94,94,25,25,25,25,25,25,25,
25,25,25,94,94,94,94,94,94,94,94,94,94,94,94,94,94,94,94,94,94,94,94,94,94,94,94,94,94,94,25,25,25,25,25,25,25,
25,25,25,94,94,94,94,94,94,94,94,94,94,94,94,94,94,94,94,94,94,94,94,94,94,94,94,94,94,94,25,25,25,25,25,25,25,
25,25,25,94,94,94,94,94,94,94,94,94,94,94,94,94,94,94,94,94,94,94,94,94,94,94,94,94,94,94,25,25,25,25,25,25,25,
25,25,25,94,94,94,94,94,94,94,94,94,94,94,94,94,94,94,94,94,94,94,94,94,94,94,94,94,94,94,25,25,25,25,25,25,25,
25,25,25,25,25,25,25,25,25,25,25,25,25,25,25,25,25,25,25,25,25,25,25,25,25,25,25,25,25,25,25,25,25,25,25,25,25,
25,25,25,25,25,25,25,25,25,25,25,25,25,25,25,25,25,25,25,25,25,25,25,25,25,25,25,25,25,25,25,25,25,25,25,25,25,
25,25,25,25,25,25,25,25,25,25,25,25,25,25,25,25,25,25,25,25,25,25,25,25,25,25,25,25,25,25,25,25,25,25,25,25,25,
25,25,25,25,25,25,25,25,25,25,25,25,25,25,25,25,25,25,25,25,25,25,25,25,25,25,25,25,25,25,25,25,25,25,25,25,25
</data>
 </layer>
 <layer id="2" name="Road" width="37" height="31">
  <data encoding="csv">
0,0,0,0,0,0,0,0,0,0,0,0,0,0,0,0,0,0,0,0,0,0,0,0,0,0,0,0,0,0,0,0,0,0,0,0,0,
0,0,0,0,0,0,0,0,0,0,0,0,0,0,0,0,0,0,0,0,0,0,0,0,0,0,0,0,0,0,0,0,0,0,0,0,0,
0,0,0,0,0,0,0,0,0,0,0,0,0,0,0,0,0,0,0,0,0,0,0,0,0,0,0,0,0,0,0,0,0,0,0,0,0,
0,0,0,0,0,0,0,0,0,0,0,0,0,0,0,0,0,4,48,48,48,48,5,0,0,0,0,0,0,0,0,0,0,0,0,0,0,
0,0,0,0,0,0,0,0,0,0,0,0,0,0,0,0,0,26,1,2,2,3,24,0,0,0,0,0,0,0,0,0,0,0,0,0,0,
0,0,0,0,0,0,0,0,0,0,0,0,0,0,0,0,0,26,24,0,0,243,241,0,0,0,0,0,0,0,0,0,0,0,0,0,0,
0,0,0,0,0,0,0,0,0,0,0,0,0,0,0,0,0,26,24,0,0,243,241,0,0,0,0,0,0,0,0,0,0,0,0,0,0,
0,0,0,0,0,0,0,0,0,0,0,0,0,0,4,48,48,49,24,0,0,243,241,0,0,0,0,0,0,0,0,0,0,0,0,0,0,
0,0,0,0,0,0,0,0,0,0,0,0,0,0,26,1,2,2,28,0,0,243,264,265,265,265,265,265,265,265,265,265,0,0,0,0,0,
0,0,0,0,0,0,0,0,0,0,0,0,0,0,26,24,0,0,0,0,0,244,219,219,219,219,219,219,219,219,219,219,0,0,0,0,0,
0,0,0,0,0,0,0,0,0,0,0,0,0,0,26,24,0,0,0,0,0,0,0,0,0,0,0,0,0,0,0,0,0,0,0,0,0,
0,0,0,0,0,0,0,0,0,0,0,0,0,0,26,24,0,0,0,0,0,0,0,0,0,0,0,0,0,0,0,0,0,0,0,0,0,
0,0,0,0,0,0,0,142,186,186,186,186,186,48,49,24,0,0,0,211,255,265,265,265,265,265,265,265,265,265,265,265,0,0,0,0,0,
0,0,0,0,0,0,0,164,139,140,140,140,140,2,2,28,0,0,0,233,208,219,219,219,219,219,219,219,219,219,219,219,0,0,0,0,0,
0,0,0,0,0,0,0,164,162,0,0,0,0,0,0,0,0,0,0,233,231,0,0,0,0,0,0,0,0,0,0,0,0,0,0,0,0,
0,0,0,0,0,0,0,164,162,0,0,0,0,0,0,0,0,0,0,233,231,0,0,0,0,0,0,0,0,0,0,0,0,0,0,0,0,
0,0,0,0,0,0,0,164,162,0,0,0,0,0,0,0,0,0,0,233,231,0,0,0,0,0,0,0,0,0,0,0,0,0,0,0,0,
0,0,0,0,0,0,0,169,167,0,0,0,0,0,0,0,0,0,0,238,236,0,0,0,0,0,0,0,0,0,0,0,0,0,0,0,0,
0,0,0,0,0,0,0,169,167,168,216,260,260,260,260,260,260,260,217,238,236,0,0,0,0,0,0,0,0,0,0,0,0,0,0,0,0,
0,0,0,0,0,0,0,169,167,168,238,213,214,214,214,214,214,215,236,238,236,0,0,0,0,0,0,0,0,0,0,0,0,0,0,0,0,
0,0,0,0,0,0,0,238,236,168,238,236,0,0,0,0,0,238,236,238,236,0,0,0,0,0,0,0,0,0,0,0,0,0,0,0,0,
0,0,0,0,0,0,0,238,236,168,238,236,0,0,0,0,0,238,236,238,236,0,0,0,0,0,0,0,0,0,0,0,0,0,0,0,0,
0,0,0,0,0,0,0,238,236,168,238,236,0,0,0,0,0,238,236,238,236,0,0,0,0,0,0,0,0,0,0,0,0,0,0,0,0,
0,0,0,0,0,0,0,238,236,168,238,236,0,0,0,0,0,238,236,238,236,0,0,0,0,0,0,0,0,0,0,0,0,0,0,0,0,
0,0,0,0,0,0,0,238,236,168,238,236,0,0,0,0,0,238,236,238,236,0,0,0,0,0,0,0,0,0,0,0,0,0,0,0,0,
0,0,0,0,0,0,0,238,259,260,261,236,0,0,0,0,0,238,259,261,236,0,0,0,0,0,0,0,0,0,0,0,0,0,0,0,0,
0,0,0,0,0,0,0,239,214,214,214,240,0,0,0,0,0,239,214,214,240,0,0,0,0,0,0,0,0,0,0,0,0,0,0,0,0,
0,0,0,0,0,0,0,0,0,0,0,0,0,0,0,0,0,0,0,0,0,0,0,0,0,0,0,0,0,0,0,0,0,0,0,0,0,
0,0,0,0,0,0,0,0,0,0,0,0,0,0,0,0,0,0,0,0,0,0,0,0,0,0,0,0,0,0,0,0,0,0,0,0,0,
0,0,0,0,0,0,0,0,0,0,0,0,0,0,0,0,0,0,0,0,0,0,0,0,0,0,0,0,0,0,0,0,0,0,0,0,0,
0,0,0,0,0,0,0,0,0,0,0,0,0,0,0,0,0,0,0,0,0,0,0,0,0,0,0,0,0,0,0,0,0,0,0,0,0
</data>
 </layer>
 <objectgroup id="3" name="Preview_TowerBase" visible="0"/>
 <objectgroup id="5" name="Preview_Tower" visible="0"/>
 <objectgroup id="12" name="Preview_Decoration" visible="0"/>
 <objectgroup id="4" name="Preview_Tooltip" visible="0"/>
 <objectgroup id="7" name="Preview_EnemyBase" visible="0"/>
 <objectgroup id="6" name="Preview_Enemy" visible="0"/>
 <objectgroup id="13" name="Preview_Bullet" visible="0"/>
 <objectgroup id="8" name="Preview_Tower_VFX" visible="0"/>
 <objectgroup id="9" name="Preview_PlaneShadow" visible="0"/>
 <objectgroup id="10" name="Preview_Plane" visible="0"/>
 <objectgroup id="11" name="Preview_PlaneVFX" visible="0"/>
 <objectgroup id="15" name="Markers">
  <object id="91" name="spawn" x="2048" y="832">
   <point/>
  </object>
 </objectgroup>
 <objectgroup id="14" name="Paths">
  <object id="96" name="path_1" x="2048" y="576">
   <polyline points="0,0 -640,0 -640,-320 -896,-320 -896,-64 -1088,-64 -1088,256 -1536,256 -1536,1088 -1349.33,1086.67 -1344,640 -896,640 -896,1088 -768,1088 -768,256 0,256"/>
  </object>
 </objectgroup>
</map>
